img/compare.svg

<svg version="1.2" xmlns="http://www.w3.org/2000/svg" viewBox="0 0 48 48" width="48" height="48">
	<title>compare-svg</title>
	<style>
		.s0 { fill: #4cb9e6 } 
	</style>
	<path id="Layer" fill-rule="evenodd" class="s0" d="m21.1 46v-4h-12.1q-1.2 0-2.1-0.9-0.9-0.9-0.9-2.1v-30q0-1.2 0.9-2.1 0.9-0.9 2.1-0.9h12.1v-4h3v44zm-12.1-9.1h12.1v-13.8zm18.1 5.1v-18.8l11.9 13.7v-27.9h-11.9v-3h11.9q1.2 0 2.1 0.9 0.9 0.9 0.9 2.1v30q0 1.2-0.9 2.1-0.9 0.9-2.1 0.9z"/>
</svg>

<svg xmlns="http://www.w3.org/2000/svg" height="48" width="48"><path d="M21.1 46V42H9Q7.8 42 6.9 41.1Q6 40.2 6 39V9Q6 7.8 6.9 6.9Q7.8 6 9 6H21.1V2H24.1V46ZM9 36.9H21.1V23.05ZM27.1 42V23.25L39 36.9V9Q39 9 39 9Q39 9 39 9H27.1V6H39Q40.2 6 41.1 6.9Q42 7.8 42 9V39Q42 40.2 41.1 41.1Q40.2 42 39 42Z" fill="#4cb9e6"/></svg>
